X:131
T:I'm Waiting For You
R:reel
M:4/4
L:1/8
K:Gmaj
G2dG BGdG|AGFG ABcA|BAGF GABc|defd cAFA|
BG~G2 dGBG|E/F/G AB c2BA|B2dB cBAG|1FDEF ~G3F:|2FDEF GABd||
g2fg edBG|FDAD BDAD|EDEF ~G3A|B/c/d^ce d2ef|
g2fg edBG|FDAD BDAD|G2FE DGBd|1cAFA GABd:|2cAFA GDEF||

